src/lib/packages/icons/src/assets/line/boxing-glove.svg

<svg width="24" height="24" viewBox="0 0 24 24" fill="none" xmlns="http://www.w3.org/2000/svg">
<path d="M16 2.24998H10C7.93 2.24998 6.25 3.92998 6.25 5.99998V6.37999C6.02 6.29999 5.76 6.24998 5.5 6.24998C4.26 6.24998 3.25 7.25998 3.25 8.49998V12.1C3.25 13.36 3.87001 14.52 4.92001 15.22L5.92001 15.88C6.13001 16.02 6.25 16.25 6.25 16.5V19.49C6.25 20.73 7.26 21.74 8.5 21.74H17.5C18.74 21.74 19.75 20.73 19.75 19.49V16.05C19.75 15.93 19.78 15.82 19.83 15.71L20.35 14.66C20.61 14.14 20.75 13.56 20.75 12.98V6.97998C20.75 4.35998 18.62 2.22998 16 2.22998V2.24998ZM5.75 13.97C5.12 13.55 4.75 12.85 4.75 12.1V8.49998C4.75 8.08998 5.09 7.74998 5.5 7.74998C5.91 7.74998 6.25 8.08998 6.25 8.49998V12C6.25 12.41 6.59 12.75 7 12.75C7.41 12.75 7.75 12.41 7.75 12V5.99998C7.75 4.75998 8.76 3.74998 10 3.74998H16C17.79 3.74998 19.25 5.20998 19.25 6.99998V13C19.25 13.35 19.17 13.7 19.01 14.01L18.49 15.06C18.33 15.37 18.25 15.72 18.25 16.07V16.26H7.72C7.64 15.61 7.3 15.02 6.75 14.65L5.75 13.99V13.97ZM17.5 20.25H8.5C8.09 20.25 7.75 19.91 7.75 19.5V17.75H18.25V19.5C18.25 19.91 17.91 20.25 17.5 20.25Z" fill="currentColor"/>
</svg>

<svg xmlns="http://www.w3.org/2000/svg" width="24" height="24" fill="none"><path fill="currentColor" d="M16 2.25h-6C7.93 2.25 6.25 3.93 6.25 6v.38c-.23-.08-.49-.13-.75-.13-1.24 0-2.25 1.01-2.25 2.25v3.6c0 1.26.62 2.42 1.67 3.12l1 .66c.21.14.33.37.33.62v2.99c0 1.24 1.01 2.25 2.25 2.25h9c1.24 0 2.25-1.01 2.25-2.25v-3.44c0-.12.03-.23.08-.34l.52-1.05c.26-.52.4-1.1.4-1.68v-6c0-2.62-2.13-4.75-4.75-4.75v.02ZM5.75 13.97c-.63-.42-1-1.12-1-1.87V8.5c0-.41.34-.75.75-.75s.75.34.75.75V12c0 .41.34.75.75.75s.75-.34.75-.75V6c0-1.24 1.01-2.25 2.25-2.25h6c1.79 0 3.25 1.46 3.25 3.25v6c0 .35-.08.7-.24 1.01l-.52 1.05c-.16.31-.24.66-.24 1.01v.19H7.72c-.08-.65-.42-1.24-.97-1.61l-1-.66v-.02Zm11.75 6.28h-9c-.41 0-.75-.34-.75-.75v-1.75h10.5v1.75c0 .41-.34.75-.75.75Z"/></svg>
